app/images/transaction-background-bottom.svg

<svg fill="none" height="62" viewBox="0 0 800 62" width="800" xmlns="http://www.w3.org/2000/svg" xmlns:xlink="http://www.w3.org/1999/xlink"><linearGradient id="a"><stop offset="0" stop-color="#75c3fc"/><stop offset="1" stop-color="#75c3fc"/></linearGradient><linearGradient id="b" gradientUnits="userSpaceOnUse" x1="542.049" x2="537.996" xlink:href="#a" y1="27.9529" y2="27.9529"/><linearGradient id="c" gradientUnits="userSpaceOnUse" x1="724.971" x2="720.918" xlink:href="#a" y1="16.7328" y2="16.7328"/><linearGradient id="d"><stop offset="0" stop-color="#ffe466"/><stop offset="1" stop-color="#ffafea"/></linearGradient><linearGradient id="e" gradientUnits="userSpaceOnUse" x1="645.028" x2="623.903" xlink:href="#d" y1="29.4641" y2="29.4641"/><linearGradient id="f" gradientUnits="userSpaceOnUse" x1="132.05" x2="127.996" xlink:href="#a" y1="27.9529" y2="27.9529"/><linearGradient id="g" gradientUnits="userSpaceOnUse" x1="324.971" x2="320.918" xlink:href="#a" y1="2.73276" y2="2.73276"/><linearGradient id="h" gradientUnits="userSpaceOnUse" x1="195.028" x2="173.904" xlink:href="#d" y1="52.4641" y2="52.4641"/><path d="m771.428 58.4105h.262c1.589-.0698 3.056-.7502 4.139-1.9191 2.218-2.4077 2.061-6.1936-.349-8.4093-2.411-2.2158-6.201-2.0587-8.419.3489-1.083 1.1689-1.642 2.6868-1.572 4.2744.07 1.5877.751 3.0532 1.921 4.1349 1.101 1.0294 2.515 1.5702 4.018 1.5702zm.017-10.2412c1.048 0 2.078.3664 2.917 1.134 1.746 1.6051 1.851 4.3268.244 6.0715-.786.8374-1.834 1.3434-2.986 1.3783-1.153.0523-2.236-.3489-3.092-1.134-.838-.7851-1.345-1.832-1.38-2.9834-.052-1.1515.35-2.2332 1.136-3.0881.838-.9072 1.991-1.3783 3.161-1.3783z" fill="#ffb0eb" opacity=".6"/><path d="m540.023 29.9695c-1.119 0-2.026-.9061-2.026-2.0238s.907-2.0238 2.026-2.0238 2.027.9061 2.027 2.0238-.908 2.0238-2.027 2.0238z" fill="url(#b)" opacity=".6"/><path d="m722.945 18.7508c-1.119 0-2.026-.9061-2.026-2.0238 0-1.1178.907-2.0239 2.026-2.0239s2.026.9061 2.026 2.0239c0 1.1177-.907 2.0238-2.026 2.0238z" fill="url(#c)" opacity=".6"/><path d="m629.995 38.9795c.315 0 .629-.1047.891-.2966l13.554-10.2936c.437-.3315.664-.8898.559-1.4306-.105-.5409-.489-.9945-1.013-1.1515l-18.165-5.7923c-.524-.157-1.083-.0349-1.485.3489-.384.3838-.541.9421-.384 1.4655l4.611 16.0859c.14.4711.489.8375.961.9945.157.0523.314.0698.471.0698zm10.393-11.2183-9.572 7.2753-3.248-11.3578z" fill="url(#e)" opacity=".6"/><path d="m474.407 30.6766h.14c5.467-.0698 9.868-4.5885 9.799-10.0493-.07-5.4608-4.577-9.8574-10.061-9.7876-5.467.0698-9.868 4.5885-9.798 10.0493.069 5.4259 4.506 9.7876 9.92 9.7876zm0-17.2548c4 0 7.301 3.2276 7.354 7.2404.052 4.0476-3.197 7.3799-7.249 7.4323-4.052.0698-7.388-3.1928-7.44-7.2404-.053-4.0476 3.196-7.38 7.248-7.4323z" fill="#86e29b" opacity=".6"/><path d="m295.91 44.6648c.039-.7328-.531-1.3749-1.265-1.4131-2.955-.1654-4.602 1.179-5.923 2.2554-1.2.9897-2.148 1.7677-4.061 1.6481-1.908-.1029-2.762-.994-3.852-2.0927-1.193-1.2155-2.667-2.7351-5.623-2.9004-2.955-.1654-4.602 1.179-5.923 2.2554-1.2.9897-2.149 1.7677-4.061 1.6481-1.908-.1029-2.762-.994-3.852-2.0927-1.194-1.2155-2.668-2.7351-5.623-2.9004-2.956-.1654-4.603 1.179-5.923 2.2554-1.2.9897-2.149 1.7677-4.061 1.6481-.734-.0383-1.377.5314-1.416 1.2642-.038.7329.532 1.3749 1.265 1.4132 2.956.1653 4.603-1.1791 5.923-2.2555 1.2-.9897 2.149-1.7677 4.061-1.648 1.908.1028 2.762.994 3.852 2.0927 1.194 1.2154 2.668 2.735 5.623 2.9004 2.956.1653 4.603-1.1791 5.924-2.2555 1.199-.9897 2.148-1.7677 4.061-1.648 1.908.1028 2.761.9939 3.851 2.0926 1.194 1.2155 2.668 2.7351 5.623 2.9005 2.956.1653 4.603-1.1791 5.924-2.2555 1.199-.9897 2.148-1.7677 4.061-1.648.733.0382 1.376-.5314 1.415-1.2643z" fill="#ffb0eb" opacity=".6"/><path d="m361.428 58.4105h.262c1.589-.0698 3.057-.7502 4.14-1.9191 2.218-2.4077 2.061-6.1936-.35-8.4093-2.41-2.2158-6.2-2.0587-8.419.3489-1.082 1.1689-1.641 2.6868-1.571 4.2744.069 1.5877.751 3.0532 1.921 4.1349 1.1 1.0294 2.515 1.5702 4.017 1.5702zm.017-10.2412c1.048 0 2.079.3664 2.917 1.134 1.747 1.6051 1.852 4.3268.245 6.0715-.786.8374-1.834 1.3434-2.987 1.3783-1.153.0523-2.235-.3489-3.091-1.134-.839-.7851-1.345-1.832-1.38-2.9834-.053-1.1515.349-2.2332 1.135-3.0881.839-.9072 1.991-1.3783 3.161-1.3783z" fill="#ffb0eb" opacity=".6"/><path d="m130.024 29.9695c-1.119 0-2.026-.9061-2.026-2.0238s.907-2.0238 2.026-2.0238 2.026.9061 2.026 2.0238-.907 2.0238-2.026 2.0238z" fill="url(#f)" opacity=".6"/><path d="m322.946 4.75077c-1.119 0-2.026-.90609-2.026-2.02382s.907-2.023825 2.026-2.023825 2.026.906095 2.026 2.023825-.907 2.02382-2.026 2.02382z" fill="url(#g)" opacity=".6"/><path d="m179.996 61.9795c.314 0 .629-.1047.891-.2966l13.553-10.2936c.437-.3315.664-.8898.559-1.4306-.104-.5409-.489-.9945-1.013-1.1515l-18.165-5.7923c-.524-.157-1.082-.0349-1.484.3489-.384.3838-.542.9421-.384 1.4655l4.611 16.0859c.139.4711.489.8375.96.9945.157.0523.315.0698.472.0698zm10.392-11.2183-9.571 7.2753-3.249-11.3578z" fill="url(#h)" opacity=".6"/><path d="m34.4077 30.6766h.1397c5.467-.0698 9.8685-4.5885 9.7986-10.0493s-4.5762-9.8574-10.0606-9.7876c-5.4669.0698-9.8684 4.5885-9.7985 10.0493.0699 5.4259 4.5063 9.7876 9.9208 9.7876zm0-17.2548c3.9998 0 7.3009 3.2276 7.3533 7.2404.0524 4.0476-3.1963 7.3799-7.2485 7.4323-4.0521.0698-7.3882-3.1928-7.4406-7.2404s3.1963-7.38 7.2485-7.4323z" fill="#86e29b" opacity=".6"/></svg>

<svg width="800" height="62" viewBox="0 0 800 62" fill="none" xmlns="http://www.w3.org/2000/svg">
<path opacity="0.6" d="M771.428 58.4105C771.515 58.4105 771.602 58.4105 771.69 58.4105C773.279 58.3407 774.746 57.6603 775.829 56.4914C778.047 54.0837 777.89 50.2978 775.48 48.0821C773.069 45.8663 769.279 46.0234 767.061 48.431C765.978 49.5999 765.419 51.1178 765.489 52.7054C765.559 54.2931 766.24 55.7586 767.41 56.8403C768.511 57.8697 769.925 58.4105 771.428 58.4105ZM771.445 48.1693C772.493 48.1693 773.523 48.5357 774.362 49.3033C776.108 50.9084 776.213 53.6301 774.606 55.3748C773.82 56.2122 772.772 56.7182 771.62 56.7531C770.467 56.8054 769.384 56.4042 768.528 55.6191C767.69 54.834 767.183 53.7871 767.148 52.6357C767.096 51.4842 767.498 50.4025 768.284 49.5476C769.122 48.6404 770.275 48.1693 771.445 48.1693Z" fill="#FFB0EB"/>
<path opacity="0.6" d="M540.023 29.9695C538.904 29.9695 537.997 29.0634 537.997 27.9457C537.997 26.828 538.904 25.9219 540.023 25.9219C541.142 25.9219 542.05 26.828 542.05 27.9457C542.05 29.0634 541.142 29.9695 540.023 29.9695Z" fill="url(#paint0_linear_482_3319)"/>
<path opacity="0.6" d="M722.945 18.7508C721.826 18.7508 720.919 17.8447 720.919 16.727C720.919 15.6092 721.826 14.7031 722.945 14.7031C724.064 14.7031 724.971 15.6092 724.971 16.727C724.971 17.8447 724.064 18.7508 722.945 18.7508Z" fill="url(#paint1_linear_482_3319)"/>
<path opacity="0.6" d="M629.995 38.9795C630.31 38.9795 630.624 38.8748 630.886 38.6829L644.44 28.3893C644.877 28.0578 645.104 27.4995 644.999 26.9587C644.894 26.4178 644.51 25.9642 643.986 25.8072L625.821 20.0149C625.297 19.8579 624.738 19.98 624.336 20.3638C623.952 20.7476 623.795 21.3059 623.952 21.8293L628.563 37.9152C628.703 38.3863 629.052 38.7527 629.524 38.9097C629.681 38.962 629.838 38.9795 629.995 38.9795ZM640.388 27.7612L630.816 35.0365L627.568 23.6787L640.388 27.7612Z" fill="url(#paint2_linear_482_3319)"/>
<path opacity="0.6" d="M474.407 30.6766C474.46 30.6766 474.495 30.6766 474.547 30.6766C480.014 30.6068 484.415 26.0881 484.346 20.6273C484.276 15.1665 479.769 10.7699 474.285 10.8397C468.818 10.9095 464.417 15.4282 464.487 20.889C464.556 26.3149 468.993 30.6766 474.407 30.6766ZM474.407 13.4218C478.407 13.4218 481.708 16.6494 481.761 20.6622C481.813 24.7098 478.564 28.0421 474.512 28.0945C470.46 28.1643 467.124 24.9017 467.072 20.8541C467.019 16.8065 470.268 13.4741 474.32 13.4218C474.337 13.4218 474.372 13.4218 474.407 13.4218Z" fill="#86E29B"/>
<path opacity="0.6" d="M295.91 44.6648C295.949 43.932 295.379 43.2899 294.645 43.2517C291.69 43.0863 290.043 44.4307 288.722 45.5071C287.522 46.4968 286.574 47.2748 284.661 47.1552C282.753 47.0523 281.899 46.1612 280.809 45.0625C279.616 43.847 278.142 42.3274 275.186 42.1621C272.231 41.9967 270.584 43.3411 269.263 44.4175C268.063 45.4072 267.114 46.1852 265.202 46.0656C263.294 45.9627 262.44 45.0716 261.35 43.9729C260.156 42.7574 258.682 41.2378 255.727 41.0725C252.771 40.9071 251.124 42.2515 249.804 43.3279C248.604 44.3176 247.655 45.0956 245.743 44.976C245.009 44.9377 244.366 45.5074 244.327 46.2402C244.289 46.9731 244.859 47.6151 245.592 47.6534C248.548 47.8187 250.195 46.4743 251.515 45.3979C252.715 44.4082 253.664 43.6302 255.576 43.7499C257.484 43.8527 258.338 44.7439 259.428 45.8426C260.622 47.058 262.096 48.5776 265.051 48.743C268.007 48.9083 269.654 47.5639 270.975 46.4875C272.174 45.4978 273.123 44.7198 275.036 44.8395C276.944 44.9423 277.797 45.8334 278.887 46.9321C280.081 48.1476 281.555 49.6672 284.51 49.8326C287.466 49.9979 289.113 48.6535 290.434 47.5771C291.633 46.5874 292.582 45.8094 294.495 45.9291C295.228 45.9673 295.871 45.3977 295.91 44.6648Z" fill="#FFB0EB"/>
<path opacity="0.6" d="M361.428 58.4105C361.515 58.4105 361.603 58.4105 361.69 58.4105C363.279 58.3407 364.747 57.6603 365.83 56.4914C368.048 54.0837 367.891 50.2978 365.48 48.0821C363.07 45.8663 359.28 46.0234 357.061 48.431C355.979 49.5999 355.42 51.1178 355.49 52.7054C355.559 54.2931 356.241 55.7586 357.411 56.8403C358.511 57.8697 359.926 58.4105 361.428 58.4105ZM361.445 48.1693C362.493 48.1693 363.524 48.5357 364.362 49.3033C366.109 50.9084 366.214 53.6301 364.607 55.3748C363.821 56.2122 362.773 56.7182 361.62 56.7531C360.467 56.8054 359.385 56.4042 358.529 55.6191C357.69 54.834 357.184 53.7871 357.149 52.6357C357.096 51.4842 357.498 50.4025 358.284 49.5476C359.123 48.6404 360.275 48.1693 361.445 48.1693Z" fill="#FFB0EB"/>
<path opacity="0.6" d="M130.024 29.9695C128.905 29.9695 127.998 29.0634 127.998 27.9457C127.998 26.828 128.905 25.9219 130.024 25.9219C131.143 25.9219 132.05 26.828 132.05 27.9457C132.05 29.0634 131.143 29.9695 130.024 29.9695Z" fill="url(#paint3_linear_482_3319)"/>
<path opacity="0.6" d="M322.946 4.75077C321.827 4.75077 320.92 3.84468 320.92 2.72695C320.92 1.60922 321.827 0.703125 322.946 0.703125C324.065 0.703125 324.972 1.60922 324.972 2.72695C324.972 3.84468 324.065 4.75077 322.946 4.75077Z" fill="url(#paint4_linear_482_3319)"/>
<path opacity="0.6" d="M179.996 61.9795C180.31 61.9795 180.625 61.8748 180.887 61.6829L194.44 51.3893C194.877 51.0578 195.104 50.4995 194.999 49.9587C194.895 49.4178 194.51 48.9642 193.986 48.8072L175.821 43.0149C175.297 42.8579 174.739 42.98 174.337 43.3638C173.953 43.7476 173.795 44.3059 173.953 44.8293L178.564 60.9152C178.703 61.3863 179.053 61.7527 179.524 61.9097C179.681 61.962 179.839 61.9795 179.996 61.9795ZM190.388 50.7612L180.817 58.0365L177.568 46.6787L190.388 50.7612Z" fill="url(#paint5_linear_482_3319)"/>
<path opacity="0.6" d="M34.4077 30.6766C34.4601 30.6766 34.495 30.6766 34.5474 30.6766C40.0144 30.6068 44.4159 26.0881 44.346 20.6273C44.2761 15.1665 39.7698 10.7699 34.2854 10.8397C28.8185 10.9095 24.417 15.4282 24.4869 20.889C24.5568 26.3149 28.9932 30.6766 34.4077 30.6766ZM34.4077 13.4218C38.4075 13.4218 41.7086 16.6494 41.761 20.6622C41.8134 24.7098 38.5647 28.0421 34.5125 28.0945C30.4604 28.1643 27.1243 24.9017 27.0719 20.8541C27.0195 16.8065 30.2682 13.4741 34.3204 13.4218C34.3379 13.4218 34.3728 13.4218 34.4077 13.4218Z" fill="#86E29B"/>
<defs>
<linearGradient id="paint0_linear_482_3319" x1="542.049" y1="27.9529" x2="537.996" y2="27.9529" gradientUnits="userSpaceOnUse">
<stop stop-color="#75C3FC"/>
<stop offset="1" stop-color="#75C3FC"/>
</linearGradient>
<linearGradient id="paint1_linear_482_3319" x1="724.971" y1="16.7328" x2="720.918" y2="16.7328" gradientUnits="userSpaceOnUse">
<stop stop-color="#75C3FC"/>
<stop offset="1" stop-color="#75C3FC"/>
</linearGradient>
<linearGradient id="paint2_linear_482_3319" x1="645.028" y1="29.4641" x2="623.903" y2="29.4641" gradientUnits="userSpaceOnUse">
<stop stop-color="#FFE466"/>
<stop offset="1" stop-color="#FFAFEA"/>
</linearGradient>
<linearGradient id="paint3_linear_482_3319" x1="132.05" y1="27.9529" x2="127.996" y2="27.9529" gradientUnits="userSpaceOnUse">
<stop stop-color="#75C3FC"/>
<stop offset="1" stop-color="#75C3FC"/>
</linearGradient>
<linearGradient id="paint4_linear_482_3319" x1="324.971" y1="2.73276" x2="320.918" y2="2.73276" gradientUnits="userSpaceOnUse">
<stop stop-color="#75C3FC"/>
<stop offset="1" stop-color="#75C3FC"/>
</linearGradient>
<linearGradient id="paint5_linear_482_3319" x1="195.028" y1="52.4641" x2="173.904" y2="52.4641" gradientUnits="userSpaceOnUse">
<stop stop-color="#FFE466"/>
<stop offset="1" stop-color="#FFAFEA"/>
</linearGradient>
</defs>
</svg>
